!!!OTL: ACH WAS IST DIE LIEBE FUER EIN SUESSES DING
!!!ARE: Europa, Mitteleuropa, Deutschland
!!!SCT: B0364
!!!YEM: Copyright 1995, estate of Helmut Schaffrath.
**kern
*ICvox
*Ivox
*M2/4
*k[b-e-a-]
*E-:
=1
{8b-
8a-
8g
8f
=2
4e-
4e-}
=3
{8f
8g
8a-
8f
=4
2g}
=5
{8e-
8e-
8f
8g
=6
4a-
4g}
=7
{8g
8g
8a-
8b-
=8
4cc
4b-}
=9
{8ee-
8dd
8cc
8b-
=10
4b-
4an}
=11
{8ff
8ee-
8dd
8cc
=12
4cc
4b-}
=13
{8gg
8ff
8ee-
8dd
=14
8ff
8ee-
4dd}
=15
{8cc
8b-
8cc
8an
=16
2b-}
=17
{8ee-
8dd
8cc
8b-
=18
8b-
8a-
4g}
=19
{8f
8cc
8b-
8d
=20
2e-}
==
!!!AGN: Liebes - Lied, Liebes - Lust
!!!ONB: ESAC (Essen Associative Code) Database: BOEHME
!!!AMT: simple duple
!!!AIN: vox
!!!EED: Helmut Schaffrath
!!!EEV: 1.0
*-
